Delta/devices/scalable/phone.svg

<?xml version="1.0" encoding="UTF-8" standalone="no"?>
<svg
   xmlns:dc="http://purl.org/dc/elements/1.1/"
   xmlns:cc="http://creativecommons.org/ns#"
   xmlns:rdf="http://www.w3.org/1999/02/22-rdf-syntax-ns#"
   xmlns:svg="http://www.w3.org/2000/svg"
   xmlns="http://www.w3.org/2000/svg"
   xmlns:sodipodi="http://sodipodi.sourceforge.net/DTD/sodipodi-0.dtd"
   xmlns:inkscape="http://www.inkscape.org/namespaces/inkscape"
   width="192"
   height="192"
   viewBox="0 0 192 192"
   fill="none"
   version="1.1"
   id="svg28"
   sodipodi:docname="phone_alt_eight.svg"
   inkscape:version="0.92.5 (2060ec1f9f, 2020-04-08)">
  <metadata
     id="metadata32">
    <rdf:RDF>
      <cc:Work
         rdf:about="">
        <dc:format>image/svg+xml</dc:format>
        <dc:type
           rdf:resource="http://purl.org/dc/dcmitype/StillImage" />
        <dc:title></dc:title>
      </cc:Work>
    </rdf:RDF>
  </metadata>
  <sodipodi:namedview
     pagecolor="#ffffff"
     bordercolor="#666666"
     borderopacity="1"
     objecttolerance="10"
     gridtolerance="10"
     guidetolerance="10"
     inkscape:pageopacity="0"
     inkscape:pageshadow="2"
     inkscape:window-width="1280"
     inkscape:window-height="745"
     id="namedview30"
     showgrid="false"
     inkscape:zoom="2.4583333"
     inkscape:cx="72.804075"
     inkscape:cy="79.728814"
     inkscape:window-x="-12"
     inkscape:window-y="-2"
     inkscape:window-maximized="1"
     inkscape:current-layer="svg28" />
  <path
     style="clip-rule:evenodd;fill:#728dbe;fill-rule:evenodd"
     inkscape:connector-curvature="0"
     id="path2"
     d="m 81.444,68.1102 c -8.2562,7.4339 -19.3316,9.751 -29.3366,7.1551 1.7757,14.2541 9.4533,30.4867 23.4438,44.4777 15.4155,15.416 33.5538,23.167 48.7678,23.803 -4.383,-11.869 -1.407,-25.727 8.57,-34.709 11.535,-10.3869 18.493,-2.379 28.059,8.631 1.273,1.464 2.591,2.982 3.973,4.517 1.373,1.524 2.746,2.997 4.082,4.43 10.12,10.853 18.051,19.358 6.504,29.754 -0.942,0.849 -1.921,1.63 -2.93,2.345 l 0.004,0.004 C 143.673,187.426 89.8385,180.459 52.3369,142.957 14.8354,105.456 7.86837,51.6207 36.7756,22.7134 l 0.0397,0.0397 c 0.6351,-0.6812 1.3052,-1.3405 2.0104,-1.9754 11.5357,-10.3868 18.4935,-2.3788 28.0593,8.6307 1.2726,1.4648 2.5914,2.9826 3.9733,4.5174 1.3722,1.524 2.7461,2.9973 4.0818,4.4298 10.1198,10.8529 18.0504,19.3581 6.5039,29.7546 z" />
  <path
     style="clip-rule:evenodd;fill:#9abeff;fill-rule:evenodd"
     d="M 31.171875 29.228516 C 9.0164049 59.177834 17.493659 108.11522 52.335938 142.95703 C 54.606438 145.22756 56.93923 147.3803 59.320312 149.42578 C 57.375657 147.25259 55.105174 144.92753 52.451172 142.42969 C 12.197672 104.54369 34.863281 60.234375 34.863281 60.234375 L 39.900391 30.238281 L 31.171875 29.228516 z "
     id="path7" />
  <path
     style="clip-rule:evenodd;fill:#9abeff;fill-rule:evenodd"
     d="M 142.58203 104.01953 C 139.65202 104.14245 136.49336 105.59198 132.88867 108.83789 C 125.78059 115.23709 122.24647 124.10998 122.375 132.97656 C 126.39853 144.64942 137.73024 157.10876 134.81445 140.84961 C 131.49038 122.31472 153.38987 115.08515 155.93359 111.84375 C 151.46084 107.09327 147.31858 103.82082 142.58203 104.01953 z "
     id="path11" />
  <path
     style="clip-rule:evenodd;fill:#9abeff;fill-rule:evenodd"
     d="M 50.357422 16.060547 C 47.810852 16.22584 45.370081 16.771214 43.087891 17.642578 C 41.733107 18.403931 40.318652 19.433507 38.826172 20.777344 C 38.120972 21.412244 37.449553 22.072706 36.814453 22.753906 L 36.775391 22.712891 C 33.349409 26.13888 30.434893 29.918978 28.007812 33.976562 C 27.356225 36.205651 27 38.560348 27 41 C 27 54.8071 38.1929 66 52 66 C 65.8071 66 77 54.8071 77 41 C 77 40.85857 76.990621 40.718998 76.988281 40.578125 C 76.307379 39.840087 75.64773 39.115054 74.939453 38.355469 C 73.603753 36.922969 72.229622 35.449781 70.857422 33.925781 C 69.475522 32.390981 68.157366 30.873003 66.884766 29.408203 C 60.94337 22.570114 56.008414 16.894468 50.357422 16.060547 z "
     id="path15" />
  <path
     style="clip-rule:evenodd;fill:#9abeff;fill-rule:evenodd"
     d="M 82.955078 126.38281 C 83.313205 126.87078 83.723466 127.37427 84.195312 127.89258 C 91.551913 135.97258 106.81645 144.99312 116.68945 148.20312 C 126.56345 151.41313 133.54688 148.92773 133.54688 148.92773 L 130.85547 137.95898 L 122.48438 129.63672 C 122.06304 134.31079 122.66527 139.07036 124.31836 143.54688 C 111.47968 143.01017 96.565102 137.38351 82.955078 126.38281 z "
     id="path17" />
  <defs
     id="defs26">
    <clipPath
       id="clip0">
      <rect
         width="192"
         height="192"
         fill="white"
         id="rect23" />
    </clipPath>
  </defs>
</svg>

<svg width="192" height="192" fill="none" version="1.1" viewBox="0 0 192 192" xmlns="http://www.w3.org/2000/svg">
 <path d="m81.444 68.11c-8.2562 7.4339-19.332 9.751-29.337 7.1551 1.7757 14.254 9.4533 30.487 23.444 44.478 15.416 15.416 33.554 23.167 48.768 23.803-4.383-11.869-1.407-25.727 8.57-34.709 11.535-10.387 18.493-2.379 28.059 8.631 1.273 1.464 2.591 2.982 3.973 4.517 1.373 1.524 2.746 2.997 4.082 4.43 10.12 10.853 18.051 19.358 6.504 29.754-0.942 0.849-1.921 1.63-2.93 2.345l4e-3 4e-3c-28.908 28.908-82.742 21.941-120.24-15.561-37.502-37.501-44.469-91.336-15.561-120.24l0.0397 0.0397c0.6351-0.6812 1.3052-1.3405 2.0104-1.9754 11.536-10.387 18.494-2.3788 28.059 8.6307 1.2726 1.4648 2.5914 2.9826 3.9733 4.5174 1.3722 1.524 2.7461 2.9973 4.0818 4.4298 10.12 10.853 18.05 19.358 6.5039 29.755z" style="clip-rule:evenodd;fill-rule:evenodd;fill:#728dbe"/>
 <path d="m31.172 29.229c-22.155 29.949-13.678 78.887 21.164 113.73 2.2705 2.2705 4.6033 4.4233 6.9844 6.4688-1.9447-2.1732-4.2151-4.4982-6.8691-6.9961-40.254-37.886-17.588-82.195-17.588-82.195l5.0371-29.996-8.7285-1.0098z" style="clip-rule:evenodd;fill-rule:evenodd;fill:#9abeff"/>
 <path d="m142.58 104.02c-2.93 0.12292-6.0887 1.5724-9.6934 4.8184-7.1081 6.3992-10.642 15.272-10.514 24.139 4.0235 11.673 15.355 24.132 12.439 7.873-3.3241-18.535 18.575-25.764 21.119-29.006-4.4728-4.7505-8.615-8.0229-13.352-7.8242z" style="clip-rule:evenodd;fill-rule:evenodd;fill:#9abeff"/>
 <path d="m50.357 16.061c-2.5466 0.16529-4.9873 0.71067-7.2695 1.582-1.3548 0.76135-2.7692 1.7909-4.2617 3.1348-0.7052 0.6349-1.3766 1.2954-2.0117 1.9766l-0.039062-0.041015c-3.426 3.426-6.3405 7.2061-8.7676 11.264-0.65159 2.2291-1.0078 4.5838-1.0078 7.0234 0 13.807 11.193 25 25 25s25-11.193 25-25c0-0.14143-0.009379-0.281-0.011719-0.42188-0.6809-0.73804-1.3406-1.4631-2.0488-2.2227-1.3357-1.4325-2.7098-2.9057-4.082-4.4297-1.3819-1.5348-2.7001-3.0528-3.9727-4.5176-5.9414-6.8381-10.876-12.514-16.527-13.348z" style="clip-rule:evenodd;fill-rule:evenodd;fill:#9abeff"/>
 <path d="m82.955 126.38c0.35813 0.48797 0.76839 0.99146 1.2402 1.5098 7.3566 8.08 22.621 17.101 32.494 20.311 9.874 3.21 16.857 0.72461 16.857 0.72461l-2.6914-10.969-8.3711-8.3223c-0.42134 4.6741 0.18089 9.4336 1.834 13.91-12.839-0.53671-27.753-6.1634-41.363-17.164z" style="clip-rule:evenodd;fill-rule:evenodd;fill:#9abeff"/>
</svg>
